storage/app/icons/phosphoricons/duotone/copy-simple-duotone.svg

<svg xmlns="http://www.w3.org/2000/svg" fill="currentColor" viewBox="0 0 256 256"><path d="M184 72v144H40V72Z" opacity=".2"/><path d="M184 64H40a8 8 0 0 0-8 8v144a8 8 0 0 0 8 8h144a8 8 0 0 0 8-8V72a8 8 0 0 0-8-8m-8 144H48V80h128Zm48-168v144a8 8 0 0 1-16 0V48H72a8 8 0 0 1 0-16h144a8 8 0 0 1 8 8"/></svg>

<svg xmlns="http://www.w3.org/2000/svg" viewBox="0 0 256 256" fill="currentColor"><path d="M184,72V216H40V72Z" opacity="0.2"/><path d="M184,64H40a8,8,0,0,0-8,8V216a8,8,0,0,0,8,8H184a8,8,0,0,0,8-8V72A8,8,0,0,0,184,64Zm-8,144H48V80H176ZM224,40V184a8,8,0,0,1-16,0V48H72a8,8,0,0,1,0-16H216A8,8,0,0,1,224,40Z"/></svg>
